Numix-Circle/48x48/apps/nvdock.svg

<?xml version="1.0" encoding="UTF-8" standalone="no"?>
<svg
   xmlns:dc="http://purl.org/dc/elements/1.1/"
   xmlns:cc="http://creativecommons.org/ns#"
   xmlns:rdf="http://www.w3.org/1999/02/22-rdf-syntax-ns#"
   xmlns:svg="http://www.w3.org/2000/svg"
   xmlns="http://www.w3.org/2000/svg"
   xmlns:xlink="http://www.w3.org/1999/xlink"
   xmlns:sodipodi="http://sodipodi.sourceforge.net/DTD/sodipodi-0.dtd"
   xmlns:inkscape="http://www.inkscape.org/namespaces/inkscape"
   viewBox="0 0 48 48"
   id="svg3038"
   version="1.1"
   inkscape:version="0.48.4 r9939"
   width="100%"
   height="100%"
   sodipodi:docname="nvdock.svg">
  <metadata
     id="metadata3097">
    <rdf:RDF>
      <cc:Work
         rdf:about="">
        <dc:format>image/svg+xml</dc:format>
        <dc:type
           rdf:resource="http://purl.org/dc/dcmitype/StillImage" />
      </cc:Work>
    </rdf:RDF>
  </metadata>
  <sodipodi:namedview
     pagecolor="#ffffff"
     bordercolor="#666666"
     borderopacity="1"
     objecttolerance="10"
     gridtolerance="10"
     guidetolerance="10"
     inkscape:pageopacity="0"
     inkscape:pageshadow="2"
     inkscape:window-width="640"
     inkscape:window-height="480"
     id="namedview3095"
     showgrid="false"
     inkscape:zoom="4.9166667"
     inkscape:cx="10.310052"
     inkscape:cy="23.479712"
     inkscape:window-x="0"
     inkscape:window-y="0"
     inkscape:window-maximized="0"
     inkscape:current-layer="svg3038" />
  <defs
     id="defs3040">
    <linearGradient
       id="linearGradient3764"
       x1="1"
       x2="47"
       gradientUnits="userSpaceOnUse"
       gradientTransform="matrix(0,-1,1,0,-1.5e-6,47.999998)">
      <stop
         stop-color="#94c341"
         stop-opacity="1"
         id="stop3043" />
      <stop
         offset="1"
         stop-color="#9dc851"
         stop-opacity="1"
         id="stop3045" />
    </linearGradient>
    <clipPath
       id="clipPath-460962106">
      <g
         transform="translate(0,-1004.3622)"
         id="g3048">
        <path
           d="m -24 13 c 0 1.105 -0.672 2 -1.5 2 -0.828 0 -1.5 -0.895 -1.5 -2 0 -1.105 0.672 -2 1.5 -2 0.828 0 1.5 0.895 1.5 2 z"
           transform="matrix(15.333333,0,0,11.5,414.99999,878.8622)"
           fill="#1890d0"
           id="path3050" />
      </g>
    </clipPath>
    <clipPath
       id="clipPath-473879774">
      <g
         transform="translate(0,-1004.3622)"
         id="g3053">
        <path
           d="m -24 13 c 0 1.105 -0.672 2 -1.5 2 -0.828 0 -1.5 -0.895 -1.5 -2 0 -1.105 0.672 -2 1.5 -2 0.828 0 1.5 0.895 1.5 2 z"
           transform="matrix(15.333333,0,0,11.5,414.99999,878.8622)"
           fill="#1890d0"
           id="path3055" />
      </g>
    </clipPath>
    <linearGradient
       inkscape:collect="always"
       xlink:href="#linearGradient3764"
       id="linearGradient3268"
       gradientUnits="userSpaceOnUse"
       gradientTransform="matrix(0,-1,1,0,-1.5e-6,47.999998)"
       x1="1"
       x2="47" />
    <linearGradient
       inkscape:collect="always"
       xlink:href="#linearGradient3764"
       id="linearGradient3271"
       gradientUnits="userSpaceOnUse"
       gradientTransform="matrix(0,-1,1,0,-1.5e-6,47.999998)"
       x1="1"
       x2="47" />
    <linearGradient
       inkscape:collect="always"
       xlink:href="#linearGradient3764"
       id="linearGradient3278"
       gradientUnits="userSpaceOnUse"
       gradientTransform="matrix(0,-1,1,0,-1.5e-6,47.999998)"
       x1="1"
       x2="47" />
    <linearGradient
       inkscape:collect="always"
       xlink:href="#linearGradient3764"
       id="linearGradient3281"
       gradientUnits="userSpaceOnUse"
       gradientTransform="matrix(0,-1,1,0,-1.5e-6,47.999998)"
       x1="1"
       x2="47" />
    <linearGradient
       inkscape:collect="always"
       xlink:href="#linearGradient3764"
       id="linearGradient3307"
       gradientUnits="userSpaceOnUse"
       gradientTransform="matrix(0,-1,1,0,-1.5e-6,47.999998)"
       x1="1"
       x2="47" />
  </defs>
  <g
     id="g3057">
    <path
       d="m 36.31 5 c 5.859 4.062 9.688 10.831 9.688 18.5 c 0 12.426 -10.07 22.5 -22.5 22.5 c -7.669 0 -14.438 -3.828 -18.5 -9.688 c 1.037 1.822 2.306 3.499 3.781 4.969 c 4.085 3.712 9.514 5.969 15.469 5.969 c 12.703 0 23 -10.298 23 -23 c 0 -5.954 -2.256 -11.384 -5.969 -15.469 c -1.469 -1.475 -3.147 -2.744 -4.969 -3.781 z m 4.969 3.781 c 3.854 4.113 6.219 9.637 6.219 15.719 c 0 12.703 -10.297 23 -23 23 c -6.081 0 -11.606 -2.364 -15.719 -6.219 c 4.16 4.144 9.883 6.719 16.219 6.719 c 12.703 0 23 -10.298 23 -23 c 0 -6.335 -2.575 -12.06 -6.719 -16.219 z"
       opacity="0.05"
       id="path3059" />
    <path
       d="m 41.28 8.781 c 3.712 4.085 5.969 9.514 5.969 15.469 c 0 12.703 -10.297 23 -23 23 c -5.954 0 -11.384 -2.256 -15.469 -5.969 c 4.113 3.854 9.637 6.219 15.719 6.219 c 12.703 0 23 -10.298 23 -23 c 0 -6.081 -2.364 -11.606 -6.219 -15.719 z"
       opacity="0.1"
       id="path3061" />
    <path
       d="m 31.25 2.375 c 8.615 3.154 14.75 11.417 14.75 21.13 c 0 12.426 -10.07 22.5 -22.5 22.5 c -9.708 0 -17.971 -6.135 -21.12 -14.75 a 23 23 0 0 0 44.875 -7 a 23 23 0 0 0 -16 -21.875 z"
       opacity="0.2"
       id="path3063" />
  </g>
  <path
     style="fill:url(#linearGradient3281);fill-opacity:1"
     d="M 24 1 L 24 25.03125 L 25.65625 25.03125 C 26.39125 25.03125 27 25.60575 27 26.34375 L 27 29.6875 C 27 30.4225 26.39025 31 25.65625 31 L 24 31 L 24 32 L 39 32 L 40 35 L 24 35 L 24 47 C 36.703 47 47 36.703 47 24 C 47 11.297 36.703 1 24 1 z M 24 35 L 24 32 L 9 32 L 8 35 L 24 35 z M 24 31 L 24 25.03125 L 22.34375 25.03125 C 21.60875 25.03125 21 25.60575 21 26.34375 L 21 29.6875 C 21 30.4265 21.60975 31 22.34375 31 L 24 31 z M 13.0625 25.03125 C 12.4525 25.15325 12 25.69875 12 26.34375 L 12 29.6875 C 12 30.4265 12.60575 31 13.34375 31 L 16.65625 31 C 17.39125 31 18 30.4215 18 29.6875 L 18 26.34375 C 18 25.60475 17.39025 25.03125 16.65625 25.03125 L 13.34375 25.03125 C 13.25075 25.03125 13.1485 25.01125 13.0625 25.03125 z M 31.0625 25.03125 C 31.1485 25.01125 31.24975 25.03125 31.34375 25.03125 L 34.65625 25.03125 C 35.39125 25.03125 36 25.60575 36 26.34375 L 36 29.6875 C 36 30.4265 35.39025 31 34.65625 31 L 31.34375 31 C 30.60475 31 30 30.4215 30 29.6875 L 30 26.34375 C 30 25.69875 30.4535 25.15225 31.0625 25.03125 z "
     id="path3067" />
  <g
     id="g3069" />
  <path
     style="opacity:0.1;fill:#000000;fill-opacity:1;fill-rule:evenodd;stroke:none"
     d="M 24 1 L 24 25.03125 L 25 25.03125 L 25 1.03125 C 24.669144 1.0171284 24.334333 1 24 1 z M 24 25.03125 L 22.34375 25.03125 C 21.60875 25.03125 21 25.60575 21 26.34375 L 21 29.6875 C 21 30.323257 21.437813 30.837745 22.03125 30.96875 C 22.013144 30.882344 22 30.779875 22 30.6875 L 22 27.34375 C 22 26.60575 22.60875 26.03125 23.34375 26.03125 L 24 26.03125 L 24 25.03125 z M 13.0625 25.03125 C 12.4525 25.15325 12 25.69875 12 26.34375 L 12 29.6875 C 12 30.323257 12.436093 30.837745 13.03125 30.96875 C 13.013245 30.882344 13 30.779875 13 30.6875 L 13 27.34375 C 13 26.69875 13.4525 26.15325 14.0625 26.03125 C 14.1485 26.01125 14.25075 26.03125 14.34375 26.03125 L 17.65625 26.03125 C 17.758794 26.03125 17.87238 26.041226 17.96875 26.0625 C 17.842005 25.457656 17.2985 25.03125 16.65625 25.03125 L 13.34375 25.03125 C 13.25075 25.03125 13.1485 25.01125 13.0625 25.03125 z M 26.96875 26.0625 C 26.986831 26.148838 27 26.2515 27 26.34375 L 27 29.6875 C 27 30.4225 26.39025 31 25.65625 31 L 25 31 L 25 32 L 26.65625 32 C 27.39025 32 28 31.4225 28 30.6875 L 28 27.34375 C 28 26.708853 27.562617 26.193695 26.96875 26.0625 z M 35.96875 26.0625 C 35.986831 26.148838 36 26.2515 36 26.34375 L 36 29.6875 C 36 30.4265 35.39025 31 34.65625 31 L 31.34375 31 C 31.240507 31 31.127969 30.990179 31.03125 30.96875 C 31.157106 31.571201 31.697125 32 32.34375 32 L 35.65625 32 C 36.39025 32 37 31.4265 37 30.6875 L 37 27.34375 C 37 26.708853 36.562617 26.193695 35.96875 26.0625 z M 9 32 L 8 35 L 9.34375 35 L 10 33 L 24 33 L 24 32 L 23.34375 32 L 17.65625 32 L 14.34375 32 L 9 32 z M 39.34375 33 L 40 35 L 25 35 L 25 36 L 41 36 L 40 33 L 39.34375 33 z M 25 36 L 24 36 L 24 47 C 24.334333 47 24.669144 46.982872 25 46.96875 L 25 36 z "
     id="path3081" />
  <path
     style="fill:#2d2d2d;fill-opacity:1;fill-rule:evenodd;stroke:none"
     d="M 24 1 C 11.297 1 1 11.297 1 24 C 1 36.703 11.297 47 24 47 L 24 35 L 8 35 L 9 32 L 24 32 L 24 31 L 22.34375 31 C 21.60975 31 21 30.4265 21 29.6875 L 21 26.34375 C 21 25.60575 21.60875 25.03125 22.34375 25.03125 L 24 25.03125 L 24 1 z M 24 25.03125 L 24 31 L 25.65625 31 C 26.39025 31 27 30.4225 27 29.6875 L 27 26.34375 C 27 25.60575 26.39125 25.03125 25.65625 25.03125 L 24 25.03125 z M 24 32 L 24 35 L 40 35 L 39 32 L 24 32 z M 13.0625 25.03125 C 13.1485 25.01125 13.25075 25.03125 13.34375 25.03125 L 16.65625 25.03125 C 17.39025 25.03125 18 25.60475 18 26.34375 L 18 29.6875 C 18 30.4215 17.39125 31 16.65625 31 L 13.34375 31 C 12.60575 31 12 30.4265 12 29.6875 L 12 26.34375 C 12 25.69875 12.4525 25.15325 13.0625 25.03125 z M 31.0625 25.03125 C 30.4535 25.15225 30 25.69875 30 26.34375 L 30 29.6875 C 30 30.4215 30.60475 31 31.34375 31 L 34.65625 31 C 35.39025 31 36 30.4265 36 29.6875 L 36 26.34375 C 36 25.60575 35.39125 25.03125 34.65625 25.03125 L 31.34375 25.03125 C 31.24975 25.03125 31.1485 25.01125 31.0625 25.03125 z "
     id="path3089" />
  <g
     id="g3091">
    <path
       d="m 40.03 7.531 c 3.712 4.084 5.969 9.514 5.969 15.469 0 12.703 -10.297 23 -23 23 c -5.954 0 -11.384 -2.256 -15.469 -5.969 4.178 4.291 10.01 6.969 16.469 6.969 c 12.703 0 23 -10.298 23 -23 0 -6.462 -2.677 -12.291 -6.969 -16.469 z"
       opacity="0.1"
       id="path3093" />
  </g>
</svg>

<svg xmlns="http://www.w3.org/2000/svg" viewBox="0 0 48 48"><defs><clipPath><g transform="translate(0,-1004.3622)"><path d="m -24 13 c 0 1.105 -0.672 2 -1.5 2 -0.828 0 -1.5 -0.895 -1.5 -2 0 -1.105 0.672 -2 1.5 -2 0.828 0 1.5 0.895 1.5 2 z" transform="matrix(15.333333,0,0,11.5,414.99999,878.8622)" fill="#1890d0"/></g></clipPath><clipPath><g transform="translate(0,-1004.3622)"><path d="m -24 13 c 0 1.105 -0.672 2 -1.5 2 -0.828 0 -1.5 -0.895 -1.5 -2 0 -1.105 0.672 -2 1.5 -2 0.828 0 1.5 0.895 1.5 2 z" transform="matrix(15.333333,0,0,11.5,414.99999,878.8622)" fill="#1890d0"/></g></clipPath><linearGradient id="linearGradient3281" gradientUnits="userSpaceOnUse" gradientTransform="matrix(0,-1,1,0,-1.5e-6,47.999998)" x1="1" x2="47"><stop stop-color="#94c341" stop-opacity="1"/><stop offset="1" stop-color="#9dc851" stop-opacity="1"/></linearGradient></defs><g><path d="m 36.31 5 c 5.859 4.062 9.688 10.831 9.688 18.5 c 0 12.426 -10.07 22.5 -22.5 22.5 c -7.669 0 -14.438 -3.828 -18.5 -9.688 c 1.037 1.822 2.306 3.499 3.781 4.969 c 4.085 3.712 9.514 5.969 15.469 5.969 c 12.703 0 23 -10.298 23 -23 c 0 -5.954 -2.256 -11.384 -5.969 -15.469 c -1.469 -1.475 -3.147 -2.744 -4.969 -3.781 z m 4.969 3.781 c 3.854 4.113 6.219 9.637 6.219 15.719 c 0 12.703 -10.297 23 -23 23 c -6.081 0 -11.606 -2.364 -15.719 -6.219 c 4.16 4.144 9.883 6.719 16.219 6.719 c 12.703 0 23 -10.298 23 -23 c 0 -6.335 -2.575 -12.06 -6.719 -16.219 z" opacity="0.05"/><path d="m 41.28 8.781 c 3.712 4.085 5.969 9.514 5.969 15.469 c 0 12.703 -10.297 23 -23 23 c -5.954 0 -11.384 -2.256 -15.469 -5.969 c 4.113 3.854 9.637 6.219 15.719 6.219 c 12.703 0 23 -10.298 23 -23 c 0 -6.081 -2.364 -11.606 -6.219 -15.719 z" opacity="0.1"/><path d="m 31.25 2.375 c 8.615 3.154 14.75 11.417 14.75 21.13 c 0 12.426 -10.07 22.5 -22.5 22.5 c -9.708 0 -17.971 -6.135 -21.12 -14.75 a 23 23 0 0 0 44.875 -7 a 23 23 0 0 0 -16 -21.875 z" opacity="0.2"/></g><path d="m 24 1 l 0 24.03 l 1.656 0 c 0.735 0 1.344 0.575 1.344 1.313 l 0 3.344 c 0 0.735 -0.61 1.313 -1.344 1.313 l -1.656 0 l 0 1 l 15 0 l 1 3 l -16 0 l 0 12 c 12.703 0 23 -10.297 23 -23 c 0 -12.703 -10.297 -23 -23 -23 z m 0 34 l 0 -3 l -15 0 l -1 3 l 16 0 z m 0 -4 l 0 -5.969 l -1.656 0 c -0.735 0 -1.344 0.575 -1.344 1.313 l 0 3.344 c 0 0.739 0.61 1.313 1.344 1.313 l 1.656 0 z m -10.938 -5.969 c -0.61 0.122 -1.063 0.668 -1.063 1.313 l 0 3.344 c 0 0.739 0.606 1.313 1.344 1.313 l 3.313 0 c 0.735 0 1.344 -0.578 1.344 -1.313 l 0 -3.344 c 0 -0.739 -0.61 -1.313 -1.344 -1.313 l -3.313 0 c -0.093 0 -0.195 -0.02 -0.281 0 z m 18 0 c 0.086 -0.02 0.187 0 0.281 0 l 3.313 0 c 0.735 0 1.344 0.575 1.344 1.313 l 0 3.344 c 0 0.739 -0.61 1.313 -1.344 1.313 l -3.313 0 c -0.739 0 -1.344 -0.578 -1.344 -1.313 l 0 -3.344 c 0 -0.645 0.453 -1.192 1.063 -1.313 z" fill="url(#linearGradient3281)" fill-opacity="1"/><path d="m 24 1 l 0 24.03 l 1 0 l 0 -24 c -0.331 -0.014 -0.666 -0.031 -1 -0.031 z m 0 24.03 l -1.656 0 c -0.735 0 -1.344 0.575 -1.344 1.313 l 0 3.344 c 0 0.636 0.438 1.15 1.031 1.281 c -0.018 -0.086 -0.031 -0.189 -0.031 -0.281 l 0 -3.344 c 0 -0.738 0.609 -1.313 1.344 -1.313 l 0.656 0 l 0 -1 z m -10.938 0 c -0.61 0.122 -1.063 0.668 -1.063 1.313 l 0 3.344 c 0 0.636 0.436 1.15 1.031 1.281 c -0.018 -0.086 -0.031 -0.189 -0.031 -0.281 l 0 -3.344 c 0 -0.645 0.453 -1.191 1.063 -1.313 c 0.086 -0.02 0.188 0 0.281 0 l 3.313 0 c 0.103 0 0.216 0.01 0.313 0.031 c -0.127 -0.605 -0.67 -1.031 -1.313 -1.031 l -3.313 0 c -0.093 0 -0.195 -0.02 -0.281 0 z m 13.906 1.031 c 0.018 0.086 0.031 0.189 0.031 0.281 l 0 3.344 c 0 0.735 -0.61 1.313 -1.344 1.313 l -0.656 0 l 0 1 l 1.656 0 c 0.734 0 1.344 -0.578 1.344 -1.313 l 0 -3.344 c 0 -0.635 -0.437 -1.15 -1.031 -1.281 z m 9 0 c 0.018 0.086 0.031 0.189 0.031 0.281 l 0 3.344 c 0 0.739 -0.61 1.313 -1.344 1.313 l -3.313 0 c -0.103 0 -0.216 -0.01 -0.313 -0.031 c 0.126 0.602 0.666 1.031 1.313 1.031 l 3.313 0 c 0.734 0 1.344 -0.573 1.344 -1.313 l 0 -3.344 c 0 -0.635 -0.437 -1.15 -1.031 -1.281 z m -26.969 5.938 l -1 3 l 1.344 0 l 0.656 -2 l 14 0 l 0 -1 l -0.656 0 l -5.688 0 l -3.313 0 l -5.344 0 z m 30.344 1 l 0.656 2 l -15 0 l 0 1 l 16 0 l -1 -3 l -0.656 0 z m -14.344 3 l -1 0 l 0 11 c 0.334 0 0.669 -0.017 1 -0.031 l 0 -10.969 z" opacity="0.1" fill="#000" fill-rule="evenodd" stroke="none" fill-opacity="1"/><path d="m 24 1 c -12.703 0 -23 10.297 -23 23 c 0 12.703 10.297 23 23 23 l 0 -12 l -16 0 l 1 -3 l 15 0 l 0 -1 l -1.656 0 c -0.734 0 -1.344 -0.573 -1.344 -1.313 l 0 -3.344 c 0 -0.738 0.609 -1.313 1.344 -1.313 l 1.656 0 l 0 -24.03 z m 0 24.03 l 0 5.969 l 1.656 0 c 0.734 0 1.344 -0.578 1.344 -1.313 l 0 -3.344 c 0 -0.738 -0.609 -1.313 -1.344 -1.313 l -1.656 0 z m 0 6.969 l 0 3 l 16 0 l -1 -3 l -15 0 z m -10.938 -6.969 c 0.086 -0.02 0.188 0 0.281 0 l 3.313 0 c 0.734 0 1.344 0.573 1.344 1.313 l 0 3.344 c 0 0.734 -0.609 1.313 -1.344 1.313 l -3.313 0 c -0.738 0 -1.344 -0.573 -1.344 -1.313 l 0 -3.344 c 0 -0.645 0.453 -1.191 1.063 -1.313 z m 18 0 c -0.609 0.121 -1.063 0.668 -1.063 1.313 l 0 3.344 c 0 0.734 0.605 1.313 1.344 1.313 l 3.313 0 c 0.734 0 1.344 -0.573 1.344 -1.313 l 0 -3.344 c 0 -0.738 -0.609 -1.313 -1.344 -1.313 l -3.313 0 c -0.094 0 -0.195 -0.02 -0.281 0 z" fill="#2d2d2d" fill-rule="evenodd" stroke="none" fill-opacity="1"/><g><path d="m 40.03 7.531 c 3.712 4.084 5.969 9.514 5.969 15.469 0 12.703 -10.297 23 -23 23 c -5.954 0 -11.384 -2.256 -15.469 -5.969 4.178 4.291 10.01 6.969 16.469 6.969 c 12.703 0 23 -10.298 23 -23 0 -6.462 -2.677 -12.291 -6.969 -16.469 z" opacity="0.1"/></g></svg>
